img/paper.svg

<svg xmlns="http://www.w3.org/2000/svg" viewBox="0 0 847.961 1259.365" xml:space="preserve" stroke="#000" fill="none" stroke-linecap="round" stroke-linejoin="round"><path d="M687.1 678c-22.3-36.1-44.5-72.2-66.7-108.4-18.4-29.7-37.1-60-63.2-83.3-26.1-23.3-61.1-39-95.8-34 12.1-11.5-6.6-31.1-23.3-31.1-16.6 0-34.3 7.9-49.3.7 26.4-14 59.2-15.3 86.6-3.6 20.7-40.1 41.3-80.2 61.9-120.4-22-14.4-46.7-24.8-72.5-30.4 26-14.3 63.2-.7 73.9 26.9 34.4-68.1 68.8-136.3 103.2-204.5 7.3-14.4 14.2-33 4-45.5-7.8-9.4-22.5-10.3-33.6-5.2-11.1 5.1-19.3 14.7-27 24.2-53.6 65.9-99.9 137.7-137.9 213.6 23 17.3 50.5 28.7 79.1 32.6-30.2 11.8-67.9-.5-85.3-27.8-30 76.7-71.3 149.1-122 214-18.5 23.6-38.7 47.3-46.4 76.2 12.9-2.3 26.9 3.4 34.6 14-12.5-3.2-26.4-6.3-37.7-.1-11.3 6.2-14.1 26.1-2 30.7 26.3 9.9 45.1 37.1 45.1 65.2-10.8-13.9-21.7-27.7-32.5-41.5-4.7-6-11.4-12.7-18.7-10.7-11.1 3-17.8 23.9-26.8 16.7 4.5-12 9.1-24.6 7.7-37.3-1.3-12.8-10.7-25.6-23.4-26.5-5.7-.4-11.5 1.6-17.1.3-5.5-1.2-10.2-8.5-6.1-12.5 31.9 16.7 77.2-6.3 82.5-42 3.9-25.9-44.3-35.5-42.4-61.6 23.8 2 47 10.4 66.5 24.2 28.4-29.9 51.8-64.6 68.7-102.2 4.9-10.8 9.3-22.5 7.2-34.1-2.2-11.6-13.4-22.3-24.9-19.6-3.7.9-6.9 3-10.1 5.1-93.2 61.3-173.3 142.3-233.8 236-11.8 18.5-23.1 37.8-28.3 59.1-6.7 27.1-3.1 55.7.5 83.4 5.6 42.9 11.2 85.7 16.8 128.6 1.7 13 9.8 24.2 17.6 34.7 36.3 48.9 72.6 97.7 108.9 146.6 4.5 6.1 9.2 12.3 15.4 16.7 8.5 6 19.1 8 29.2 10.6 69 17.7 125.1 66.3 178.4 113.5-28 1.8-53.2-16.7-72.9-36.7-19.7-20-37.6-43.1-63.1-55-30.8-14.4-67.6-9.9-99.1-22.7-23.3-9.4-45.3-28.5-70-23.7-18.8 3.6-32 20.1-43.4 35.5L0 1200.8c30.9-62.1 61.8-124.2 92.7-186.4 11.2-22.5 22.7-47.8 15.8-72-26.1-89.9-40.2-183.3-42.2-276.9-.4-21.8.1-44.7 10.9-63.6 60.7-106.8 146.6-199 248.8-267 8.2-5.5 16.9-10.9 26.7-12.2 19.3-2.3 38.4 15.5 37.3 34.9 51.2-98.2 102.8-196.8 169.3-285.3 14.2-18.8 30.5-38.2 53-44.9 22.6-6.8 52.3 5.6 54.6 29.1C672.8 21.9 716.5 0 747.7 16c31.2 16 39 64.3 14.3 89.3 20.6-16.8 54.5-1 64.2 23.8 9.6 24.8 1.7 52.8-9.1 77.1-10.9 24.2-24.9 47.8-28.1 74.2 21-10.2 46.8 8.4 52.9 30.9 6.1 22.4-1.4 46.1-8.8 68.3C794.6 495 756 610.4 717.5 725.8c-17.6 52.8-35.3 105.7-60.9 155.1-43.6 84.3-108.6 155.4-159.2 235.8-28.3 45-52 92.9-70.7 142.7 6.7-66.3 39.3-127.2 77.6-181.6 38.3-54.5 83-104.4 118.7-160.5 33.8-53 59.3-111.2 75.5-172 2.7-10.4 5.3-21.2 3.9-31.9-1.6-12.9-8.5-24.4-15.3-35.4M586.5 474.6c.3 3.5 2.3 6.5 4.2 9.4 15.6 23.3 31.2 46.6 46.7 69.9 54.1-71.2 80.8-158.9 118.2-240.2 23.9-52.2 52.8-102.9 65.6-158.9 3.3-14.8-4.3-31.4-17.8-38.5-13.4-7.1-31.4-4-41.7 7.1-4.9 5.3-8.1 12-11.1 18.5l-47.7 102.6c-.4.8-.8 1.6-.6 2.5.2 1.4 1.7 2.2 3 2.8 18.1 8.1 36.2 16.2 54.4 24.3 3.8 1.7 2.3 8.2-1.5 9.9-3.9 1.6-8.3 0-12.3-1.5-15.9-6.4-31.6-13.1-47.3-20-2.5-1.1-4.8 1.7-6.1 4.1-20.1 37.7-40.1 75.4-60.1 113.1 4.1-1.7 8.7 2.8 8.9 7.2.3 4.5-2.3 8.6-4.7 12.3 22.3 7.9 42 22.9 55.4 42.4-3.7 3.5-9.8.4-13.9-2.8-18.2-14.1-36.4-28.2-54.5-42.3-11.3 22.2-22.6 44.4-33.8 66.6-1.9 3.6-3.7 7.5-3.3 11.5m-8.2-41.5c16.4-19.2 29.6-41.1 39-64.6 6-15.1 10.4-30.8 16.3-45.9 12.6-32.3 31.6-61.5 49.2-91.3 29-49.2 54.7-100.3 76.8-152.9 4.5-10.8 8.9-23 4.8-34-5.5-14.4-22.7-19.8-37.9-22.4-8.5-1.5-17.9-2.6-25.3 1.9-5.1 3.2-8.4 8.6-11.5 13.8-19.9 34-36.9 69.8-50.5 106.7-.5 1.3-.8 3.1.4 3.7 18.3 9 36.5 18.1 54.8 27.2 2.8 1.4 6.2 3.7 5.5 6.8-.7 3.7-5.8 4-9.5 3.2-19.8-4.1-38.8-12.5-55.2-24.4-2.7-2-6 1.6-7.5 4.7-14.8 31.4-29.7 62.9-44.6 94.3 16.2 11.5 35.1 19.2 54.7 22.3 3.8.6 3.6 6.9.2 8.8-3.3 1.8-7.5.7-11.1-.5l-35.7-11.7c-5.5-1.8-12.1-4.9-12.4-10.7-20.7 43.8-41.5 87.6-62.2 131.4-1.3 2.7-2.6 5.7-1.9 8.6.8 3.6 4.4 5.8 7.7 7.5 14.4 7.7 29.4 14.5 44.7 20.4 1.9.8 4 1.6 6.1 1.1 2.1-.5 3.7-2.3 5.1-4m108.6 97.5c-1.8-2.5-5.7-2.4-8.2-.6-2.5 1.7-3.9 4.5-5.3 7.3-5.6 11.3-11.1 22.6-16.7 34-1.9 3.7-3.7 7.6-4.1 11.8-.5 5.7 1.8 11.2 4.3 16.4 14.7 31.8 33.5 61.7 55.7 88.8 43.8-113.4 87.8-227 118.8-344.5 2.3-8.8 4.6-18 3.1-26.9-2.4-14.1-15.2-25.8-29.4-27-14.3-1.2-28.8 8.2-33.5 21.8-24.2 69.5-52.7 137.5-85.5 203.4 15.7 14.8 34 27 53.7 35.9 6.4 3 14.2 7.4 13.5 14.4-25.8-.9-50.9-14.1-66.4-34.8m-127.6-80.2c-1.9-2.2-4.7-3.4-7.3-4.4-9.1-3.7-18.3-7.3-27.4-10.9-2.2-.9-4.5-1.8-6.9-1.5-2.4.3-4.7 2.3-4.5 4.7.2 2.2 2.4 3.7 4.4 4.8 17.3 10 33.5 21.9 48.1 35.5-1.1-6.5-2.1-12.9-3.2-19.3-.5-3.2-1.1-6.5-3.2-8.9" fill="#000" stroke="none"/><path d="M496.2 568.1c-6.2-9-9.2-20.1-8.4-31 .2-3.3.9-6.9 3.1-9.4 1-1.1 2.6-2 4-1.5 1.5.5 2.1 2.3 2.4 3.9 3.4 14 6.2 28.3 8.4 42.6-3.4 1.8-7.3-1.4-9.5-4.6M461 443.8c-17-2.8-33.9-5.7-50.8-8.8-2.9-.6-6.6-2.3-5.8-5.1.6-2.1 3.3-2.7 5.4-2.7 15.2-.5 30.5 2.3 44.5 8.1 3.7 1.5 8 4.7 6.7 8.5M633.2 318.9c-6.2 1.2-12.6-.5-18.7-2.3-10.9-3.3-21.6-7-32.2-11.2-3-1.1-6.2-2.5-7.6-5.3-1.5-2.8.2-7.3 3.4-7.1 17.9 1.2 35.6 7.4 50.2 17.9 2.7 1.9 5.6 4.7 4.9 8M692.3 421.5c-6.1 3.3-13.2-1.7-18.4-6.3-6.8-6.1-13.6-12.3-20.4-18.4-5.8-5.2-12-11.2-12.6-19 5.1-2.6 11 1.6 15.2 5.6 6.3 5.9 12.6 11.8 19 17.8 6.5 6.1 13.1 12.3 17.2 20.3M739.4 420.9c7.2-.1 14.1 3.2 20.7 6.4 9.5 4.6 19.1 9.3 28.7 13.9 4.7 2.3 10 5.4 10.4 10.6-4.8 3.8-11.7 2.1-17.5.3-16.5-5.3-33.3-10.8-47.4-20.8-1.3-.9-2.6-2-3.1-3.4-1.3-4 4-7 8.2-7M522 152.8c2.4-2.6 6.6-2 10-1.1 19.5 4.9 38 13.9 54 26.3 1.6 1.2 3.2 2.5 3.8 4.4.6 1.9-.2 4.4-2.1 4.8-6.3 1.4-12.7-1.6-18.5-4.5-9.9-5-19.7-10-29.6-15-7-3.6-14.5-7.7-17.6-14.9M762.3 553c-6.5 2.1-12.8-3.5-17.8-8.2-12.8-11.7-28.9-19.7-45.9-22.8-2.8-.5-3.1-4.9-1-6.8 2.1-2 5.2-2.2 8.1-2.1 8.4.1 17 .9 24.6 4.5 8 3.7 14.4 10.1 20.6 16.5 5.3 5.3 10.9 11.4 11.4 18.9M414.3 836.7c-4.1-13.6-3-28.2-3-42.4.2-60.4-19.5-118.9-30.6-178.3-.8-4.1.8-10.4 4.8-9 1.6.5 2.4 2.4 3 4 25.2 67.5 36.4 140.2 32.6 212.1-.3 5.4-1.6 12.1-6.8 13.6M476.7 576.8c22.6 35.4 40.2 74 65.7 107.4 11 14.3 23.4 27.6 35.8 40.8 21.8 23.4 43.6 46.8 65.3 70.3 3 3.3 6.2 8.1 3.8 11.8-77.1-53.6-139.4-128.3-178.2-213.8-3.4-7.7-6.7-16.9-2.3-24.1 4.4-.2 7.5 3.9 9.9 7.6" fill="#000" stroke="none"/><path d="M429.2 608.4c33 48.5 64.4 98.2 94.1 148.8 8.2 14 16.4 28.7 17.7 44.8-1.7-.2-3.4-.4-5.2-.7-33.3-41.5-55.9-90.3-84-135.6-28.1-45.2-63.8-88.5-112.8-109.3-4.6-1.9-4.2-9.5 0-12.2 4.1-2.8 9.8-1.7 14.1.9 4.3 2.6 7.6 6.5 11.5 9.6 8.5 6.7 19.3 9.6 28.6 15.1 15.4 8.9 26 23.9 36 38.6" fill="#000" stroke="none"/></svg>

<?xml version="1.0" encoding="utf-8"?>
<!DOCTYPE svg PUBLIC "-//W3C//DTD SVG 1.1//EN" "http://www.w3.org/Graphics/SVG/1.1/DTD/svg11.dtd">

<svg version="1.1" id="Contours" xmlns="http://www.w3.org/2000/svg" xmlns:xlink="http://www.w3.org/1999/xlink" x="0px" y="0px"  viewBox="0.000000 0.000000 847.960876 1259.364502" xml:space="preserve" stroke="black" fill="none" stroke-linecap='round' stroke-linejoin='round'>
<desc xmlns:shape="http://adobe.com/products/shape">
</desc>
<path d='M687.1 678.0 C664.8 641.9 642.6 605.8 620.4 569.6 C602.0 539.9 583.3 509.6 557.2 486.3 C531.1 463.0 496.1 447.3 461.4 452.3 C473.5 440.8 454.8 421.2 438.1 421.2 C421.5 421.2 403.8 429.1 388.8 421.9 C415.2 407.9 448.0 406.6 475.4 418.3 C496.1 378.2 516.7 338.1 537.3 297.9 C515.3 283.5 490.6 273.1 464.8 267.5 C490.8 253.2 528.0 266.8 538.7 294.4 C573.1 226.3 607.5 158.1 641.9 89.9 C649.2 75.5 656.1 56.9 645.9 44.4 C638.1 35.0 623.4 34.1 612.3 39.2 C601.2 44.3 593.0 53.9 585.3 63.4 C531.7 129.3 485.4 201.1 447.4 277.0 C470.4 294.3 497.9 305.7 526.5 309.6 C496.3 321.4 458.6 309.1 441.2 281.8 C411.2 358.5 369.9 430.9 319.2 495.8 C300.7 519.4 280.5 543.1 272.8 572.0 C285.7 569.7 299.7 575.4 307.4 586.0 C294.9 582.8 281.0 579.7 269.7 585.9 C258.4 592.1 255.6 612.0 267.7 616.6 C294.0 626.5 312.8 653.7 312.8 681.8 C302.0 667.9 291.1 654.1 280.3 640.3 C275.6 634.3 268.9 627.6 261.6 629.6 C250.5 632.6 243.8 653.5 234.8 646.3 C239.3 634.3 243.9 621.7 242.5 609.0 C241.2 596.2 231.8 583.4 219.1 582.5 C213.4 582.1 207.6 584.1 202.0 582.8 C196.5 581.6 191.8 574.3 195.9 570.3 C227.8 587.0 273.1 564.0 278.4 528.3 C282.3 502.4 234.1 492.8 236.0 466.7 C259.8 468.7 283.0 477.1 302.5 490.9 C330.9 461.0 354.3 426.3 371.2 388.7 C376.1 377.9 380.5 366.2 378.4 354.6 C376.2 343.0 365.0 332.3 353.5 335.0 C349.8 335.9 346.6 338.0 343.4 340.1 C250.2 401.4 170.1 482.4 109.6 576.1 C97.8 594.6 86.5 613.9 81.3 635.2 C74.6 662.3 78.2 690.9 81.8 718.6 C87.4 761.5 93.0 804.3 98.6 847.2 C100.3 860.2 108.4 871.4 116.2 881.9 C152.5 930.8 188.8 979.6 225.1 1028.5 C229.6 1034.6 234.3 1040.8 240.5 1045.2 C249.0 1051.2 259.6 1053.2 269.7 1055.8 C338.7 1073.5 394.8 1122.1 448.1 1169.3 C420.1 1171.1 394.9 1152.6 375.2 1132.6 C355.5 1112.6 337.6 1089.5 312.1 1077.6 C281.3 1063.2 244.5 1067.7 213.0 1054.9 C189.7 1045.5 167.7 1026.4 143.0 1031.2 C124.2 1034.8 111.0 1051.3 99.6 1066.7 C66.4 1111.4 33.2 1156.1 0.0 1200.8 C30.9 1138.7 61.8 1076.6 92.7 1014.4 C103.9 991.9 115.4 966.6 108.5 942.4 C82.4 852.5 68.3 759.1 66.3 665.5 C65.9 643.7 66.4 620.8 77.2 601.9 C137.9 495.1 223.8 402.9 326.0 334.9 C334.2 329.4 342.9 324.0 352.7 322.7 C372.0 320.4 391.1 338.2 390.0 357.6 C441.2 259.4 492.8 160.8 559.3 72.3 C573.5 53.5 589.8 34.1 612.3 27.4 C634.9 20.6 664.6 33.0 666.9 56.5 C672.8 21.9 716.5 0.0 747.7 16.0 C778.9 32.0 786.7 80.3 762.0 105.3 C782.6 88.5 816.5 104.3 826.2 129.1 C835.8 153.9 827.9 181.9 817.1 206.2 C806.2 230.4 792.2 254.0 789.0 280.4 C810.0 270.2 835.8 288.8 841.9 311.3 C848.0 333.7 840.5 357.4 833.1 379.6 C794.6 495.0 756.0 610.4 717.5 725.8 C699.9 778.6 682.2 831.5 656.6 880.9 C613.0 965.2 548.0 1036.3 497.4 1116.7 C469.1 1161.7 445.4 1209.6 426.7 1259.4 C433.4 1193.1 466.0 1132.2 504.3 1077.8 C542.6 1023.3 587.3 973.4 623.0 917.3 C656.8 864.3 682.3 806.1 698.5 745.3 C701.2 734.9 703.8 724.1 702.4 713.4 C700.8 700.5 693.9 689.0 687.1 678.0 M586.5 474.6 C586.8 478.1 588.8 481.1 590.7 484.0 C606.3 507.3 621.9 530.6 637.4 553.9 C691.5 482.7 718.2 395.0 755.6 313.7 C779.5 261.5 808.4 210.8 821.2 154.8 C824.5 140.0 816.9 123.4 803.4 116.3 C790.0 109.2 772.0 112.3 761.7 123.4 C756.8 128.7 753.6 135.4 750.6 141.9 C734.7 176.1 718.8 210.3 702.9 244.5 C702.5 245.3 702.1 246.1 702.3 247.0 C702.5 248.4 704.0 249.2 705.3 249.8 C723.4 257.9 741.5 266.0 759.7 274.1 C763.5 275.8 762.0 282.3 758.2 284.0 C754.3 285.6 749.9 284.0 745.9 282.5 C730.0 276.1 714.3 269.4 698.6 262.5 C696.1 261.4 693.8 264.2 692.5 266.6 C672.4 304.3 652.4 342.0 632.4 379.7 C636.5 378.0 641.1 382.5 641.3 386.9 C641.6 391.4 639.0 395.5 636.6 399.2 C658.9 407.1 678.6 422.1 692.0 441.6 C688.3 445.1 682.2 442.0 678.1 438.8 C659.9 424.7 641.7 410.6 623.6 396.5 C612.3 418.7 601.0 440.9 589.8 463.1 C587.9 466.7 586.1 470.6 586.5 474.6 M578.3 433.1 C594.7 413.9 607.9 392.0 617.3 368.5 C623.3 353.4 627.7 337.7 633.6 322.6 C646.2 290.3 665.2 261.1 682.8 231.3 C711.8 182.1 737.5 131.0 759.6 78.4 C764.1 67.6 768.5 55.4 764.4 44.4 C758.9 30.0 741.7 24.6 726.5 22.0 C718.0 20.5 708.6 19.4 701.2 23.9 C696.1 27.1 692.8 32.5 689.7 37.7 C669.8 71.7 652.8 107.5 639.2 144.4 C638.7 145.7 638.4 147.5 639.6 148.1 C657.9 157.1 676.1 166.2 694.4 175.3 C697.2 176.7 700.6 179.0 699.9 182.1 C699.2 185.8 694.1 186.1 690.4 185.3 C670.6 181.2 651.6 172.8 635.2 160.9 C632.5 158.9 629.2 162.5 627.7 165.6 C612.9 197.0 598.0 228.5 583.1 259.9 C599.3 271.4 618.2 279.1 637.8 282.2 C641.6 282.8 641.4 289.1 638.0 291.0 C634.7 292.8 630.5 291.7 626.9 290.5 C615.0 286.6 603.1 282.7 591.2 278.8 C585.7 277.0 579.1 273.9 578.8 268.1 C558.1 311.9 537.3 355.7 516.6 399.5 C515.3 402.2 514.0 405.2 514.7 408.1 C515.5 411.7 519.1 413.9 522.4 415.6 C536.8 423.3 551.8 430.1 567.1 436.0 C569.0 436.8 571.1 437.6 573.2 437.1 C575.3 436.6 576.9 434.8 578.3 433.1 M686.9 530.6 C685.1 528.1 681.2 528.2 678.7 530.0 C676.2 531.7 674.8 534.5 673.4 537.3 C667.8 548.6 662.3 559.9 656.7 571.3 C654.8 575.0 653.0 578.9 652.6 583.1 C652.1 588.8 654.4 594.3 656.9 599.5 C671.6 631.3 690.4 661.2 712.6 688.3 C756.4 574.9 800.4 461.3 831.4 343.8 C833.7 335.0 836.0 325.8 834.5 316.9 C832.1 302.8 819.3 291.1 805.1 289.9 C790.8 288.7 776.3 298.1 771.6 311.7 C747.4 381.2 718.9 449.2 686.1 515.1 C701.8 529.9 720.1 542.1 739.8 551.0 C746.2 554.0 754.0 558.4 753.3 565.4 C727.5 564.5 702.4 551.3 686.9 530.6 M559.3 450.4 C557.4 448.2 554.6 447.0 552.0 446.0 C542.9 442.3 533.7 438.7 524.6 435.1 C522.4 434.2 520.1 433.3 517.7 433.6 C515.3 433.9 513.0 435.9 513.2 438.3 C513.4 440.5 515.6 442.0 517.6 443.1 C534.9 453.1 551.1 465.0 565.7 478.6 C564.6 472.1 563.6 465.7 562.5 459.3 C562.0 456.1 561.4 452.8 559.3 450.4 ' fill ="#000000" stroke="none"/>
<path d='M496.2 568.1 C490.0 559.1 487.0 548.0 487.8 537.1 C488.0 533.8 488.7 530.2 490.9 527.7 C491.9 526.6 493.5 525.7 494.9 526.2 C496.4 526.7 497.0 528.5 497.3 530.1 C500.7 544.1 503.5 558.4 505.7 572.7 C502.3 574.5 498.4 571.3 496.2 568.1 ' fill ="#000000" stroke="none"/>
<path d='M461.0 443.8 C444.0 441.0 427.1 438.1 410.2 435.0 C407.3 434.4 403.6 432.7 404.4 429.9 C405.0 427.8 407.7 427.2 409.8 427.2 C425.0 426.7 440.3 429.5 454.3 435.3 C458.0 436.8 462.3 440.0 461.0 443.8 ' fill ="#000000" stroke="none"/>
<path d='M633.2 318.9 C627.0 320.1 620.6 318.4 614.5 316.6 C603.6 313.3 592.9 309.6 582.3 305.4 C579.3 304.3 576.1 302.9 574.7 300.1 C573.2 297.3 574.9 292.8 578.1 293.0 C596.0 294.2 613.7 300.4 628.3 310.9 C631.0 312.8 633.9 315.6 633.2 318.9 ' fill ="#000000" stroke="none"/>
<path d='M692.3 421.5 C686.2 424.8 679.1 419.8 673.9 415.2 C667.1 409.1 660.3 402.9 653.5 396.8 C647.7 391.6 641.5 385.6 640.9 377.8 C646.0 375.2 651.9 379.4 656.1 383.4 C662.4 389.3 668.7 395.2 675.1 401.2 C681.6 407.3 688.2 413.5 692.3 421.5 ' fill ="#000000" stroke="none"/>
<path d='M739.4 420.9 C746.6 420.8 753.5 424.1 760.1 427.3 C769.6 431.9 779.2 436.6 788.8 441.2 C793.5 443.5 798.8 446.6 799.2 451.8 C794.4 455.6 787.5 453.9 781.7 452.1 C765.2 446.8 748.4 441.3 734.3 431.3 C733.0 430.4 731.7 429.3 731.2 427.9 C729.9 423.9 735.2 420.9 739.4 420.9 ' fill ="#000000" stroke="none"/>
<path d='M522.0 152.8 C524.4 150.2 528.6 150.8 532.0 151.7 C551.5 156.6 570.0 165.6 586.0 178.0 C587.6 179.2 589.2 180.5 589.8 182.4 C590.4 184.3 589.6 186.8 587.7 187.2 C581.4 188.6 575.0 185.6 569.2 182.7 C559.3 177.7 549.5 172.7 539.6 167.7 C532.6 164.1 525.1 160.0 522.0 152.8 ' fill ="#000000" stroke="none"/>
<path d='M762.3 553.0 C755.8 555.1 749.5 549.5 744.5 544.8 C731.7 533.1 715.6 525.1 698.6 522.0 C695.8 521.5 695.5 517.1 697.6 515.2 C699.7 513.2 702.8 513.0 705.7 513.1 C714.1 513.2 722.7 514.0 730.3 517.6 C738.3 521.3 744.7 527.7 750.9 534.1 C756.2 539.4 761.8 545.5 762.3 553.0 ' fill ="#000000" stroke="none"/>
<path d='M414.3 836.7 C410.2 823.1 411.3 808.5 411.3 794.3 C411.5 733.9 391.8 675.4 380.7 616.0 C379.9 611.9 381.5 605.6 385.5 607.0 C387.1 607.5 387.9 609.4 388.5 611.0 C413.7 678.5 424.9 751.2 421.1 823.1 C420.8 828.5 419.5 835.2 414.3 836.7 ' fill ="#000000" stroke="none"/>
<path d='M476.7 576.8 C499.3 612.2 516.9 650.8 542.4 684.2 C553.4 698.5 565.8 711.8 578.2 725.0 C600.0 748.4 621.8 771.8 643.5 795.3 C646.5 798.6 649.7 803.4 647.3 807.1 C570.2 753.5 507.9 678.8 469.1 593.3 C465.7 585.6 462.4 576.4 466.8 569.2 C471.2 569.0 474.3 573.1 476.7 576.8 ' fill ="#000000" stroke="none"/>
<path d='M429.2 608.4 C462.2 656.9 493.6 706.6 523.3 757.2 C531.5 771.2 539.7 785.9 541.0 802.0 C539.3 801.8 537.6 801.6 535.8 801.3 C502.5 759.8 479.9 711.0 451.8 665.7 C423.7 620.5 388.0 577.2 339.0 556.4 C334.4 554.5 334.8 546.9 339.0 544.2 C343.1 541.4 348.8 542.5 353.1 545.1 C357.4 547.7 360.7 551.6 364.6 554.7 C373.1 561.4 383.9 564.3 393.2 569.8 C408.6 578.7 419.2 593.7 429.2 608.4 ' fill ="#000000" stroke="none"/>

</svg>
